X:18504
T:Walzer aus Rohrbach - Walzer/Waltz/Valse
B:"Tänze aus Oberösterreich", Hermann Derschmidt, Landesinstitut für Volksbildung  und  Heimatpflege, Linz 1985 (Sondernummer der Oberösterreichischen Heimatblätter)
P:Rohrbach
Z:abc transcription Simon Wascher
N:please mail errors to simon.wascher@chello.at
M:3/4
L:1/4
K:G
(3d/e/f/|g3|gfe|d>ed|B/A/Bd|
c>dc|A/G/Ae|d>ed|B2(3d/e/f/|
g3|gfe|d>ed|B/A/Bd|
c>dc|def|g>gg|g2:|
|:G/A/|B/d/B/d/B/d/|B2A/B/|c/d/c/d/c/d/|c2c/d/|
f/f/fe|c2B/c/|e/e/ed|B2G/A/|
B/d/B/d/B/d/|B2A/B/|c/d/c/d/c/d/|c2c/d/|
f/f/fe|c>de/f/|gf/g/b/a/|g2:|
K:C
|:G|e3|ef^f|g3|gcB|
A3|ABc|G3-|Gfe|
d2G|Ged|c2G|Gdc|
B2a|g2B|cc/B/c/d/|c2:|


